!!!OTL: The Banks of Newfoundland (b)
!!!ONM: 104.
**kern
*clefG2
*k[b-]
*F:
*M6/8
*MM84
{8e
8d
=1
4c
8c
4f
8A
=2
4B-
8c
4d}
{8c
=3
8d
4f
4f
8e
=4
4.f
8r}
{(8f
8g)
=5
[4a
8a]
(8a
8g)
8f
=6
4g
8g
4a}
{16f
16f
=7
4f
8f
4f
8A
=8
4.c
8r}
{(8f
8g)
=9
4a
8a
8a
8g
8f
=10
4g
8g
4a}
{(16a
16g)
=11
4f
8f
4f
8A
=12
4.c
4r}
{(16f
16e)
=13
4d
8c
4f
8A
=14
4B-
8c
4d}
{(16c
16B-)
=15
4A
8c
4f
8e
=16
4.f
8r}
==
*-
!!!CNT: Folksongs of Maritime Canada
!!!MRD: 1928///-1932///
!!!OCL: Helen Creighton
!!!YOR: Songs and Ballads from Nova Scotia
!!!PPR: J.M. Dent & Sons, Limited
!!!PPP: Toronto, Canada
!!!PDT: 1932///
!!!reprint: Dover Publications, 1992: ISBN 0-486-21703-5
!!!ENC1: Craig Stuart Sapp (music and bibliographic data)                       
!!!ENC2: Marcus Pearce (phrase markings and key designations)                   
!!!ENC3: Darrell Conklin (phrase markings and key designations)   
!!!END: 2002/04/10/
!!!EEV: 2004/06/05
!!!MPN: Mr. Ben Henneberry
!!!PPG: 223
!!!EFL: 105/152
!!!ARE: Canada; Nova Scotia
!!!verses: 8
!!!VTS: 422929699
